X:1095
T:Fal lal la.
M:2/4
L:1/16
Q:1/4=104
I: ||
Z:Jack Campin * www.campin.me.uk * 2009
K:D
d|a2`a2    f2`f2   |d2`d2 (d/e/f) z2|g2`g2 f2ze|c>de>f e2 ze|
  a2`a2    f2`f2   |d2`d2 (d/e/f) z2|g2`g2 f2zd|e>de>f d2 za|
  e2 f2    g2 a2   |e2 f2 g2      a2|e2 f2 g2b2|a2`f2  a2 za|
% alternate
  eA fA    gA aA   |eA fA gA      aA|eA fA g2b2|a2`f2  a2 za|
  a2`ab/g/ f2`fg/e/|d2`d2 de/f/   z2|g2`g2 f2zd|e>de>f d2  |]
<end>
<start>
